X: 30181
M: C
L: 1/8
K: D
V: 1 staves=3
|: z!p!D |\
d2d>d d2f2 | d^def gabg | f2a2 f2a2 | d2d>d d2 :|
V: 2
z2 |\
E2E>E E2E2 | F2F>F F2F2 | A2A2 ^G2G2 | A2c>c c2 :|
|: z2 |\
E2E>E E2F2 | (G4 E2)z2 | C4 D4 | C2E>E E2z2 |\
V: 3 clef=bass middle=d
z2 |\
d2d2 d2z2 | A2A2 A2z2 | A2A2 A2z2 | d2d2 d2z2 |\
c2c2 c2z2 | d2d2 d2z2 | e4 e4 | A2a>a A2 :|
|: z2 |\
e2e>e e2f2 | (g4 e2)z2 | A2A2 d2d2 | A2A2 A2z2 |\
[A2F2][AF]>[AF] [A2F2][A2F2] | G2G2 G2G2 | A2A2 A2A2 | d2d>d d2 :|


